brandFactory_export/2.Regular/Base de datos_2Regular.svg

<?xml version="1.0" encoding="UTF-8"?>
<svg width="24px" height="24px" viewBox="0 0 24 24" version="1.1" xmlns="http://www.w3.org/2000/svg" xmlns:xlink="http://www.w3.org/1999/xlink">
    <title>2.Regular/Base de datos_2Regular</title>
    <g id="Symbols" stroke="none" stroke-width="1" fill="none" fill-rule="evenodd">
        <g id="2.Regular/Base-de-datos_2Regular" fill="#5CB615" fill-rule="nonzero">
            <path d="M19.2672269,20.0470588 C19.8420168,20.0470588 20.0470588,19.8386555 20.0470588,19.2571429 C20.0470588,18.6756303 19.8420168,18.4672269 19.2672269,18.4672269 C18.692437,18.4672269 18.487395,18.6756303 18.487395,19.2571429 C18.4907563,19.8386555 18.692437,20.0470588 19.2672269,20.0470588 Z M19.2672269,17.2773109 C20.4941176,17.2773109 21.2235294,18.0168067 21.2235294,19.2571429 C21.2235294,20.497479 20.4907563,21.2369748 19.2672269,21.2369748 C18.0436975,21.2369748 17.3109244,20.497479 17.3109244,19.2571429 C17.3109244,18.0168067 18.0436975,17.2773109 19.2672269,17.2773109 Z M19.2672269,12.605042 C19.8420168,12.605042 20.0470588,12.3966387 20.0470588,11.8151261 C20.0470588,11.2336134 19.8420168,11.0252101 19.2672269,11.0252101 C18.692437,11.0252101 18.487395,11.2336134 18.487395,11.8151261 C18.4907563,12.4 18.692437,12.605042 19.2672269,12.605042 Z M19.2672269,9.83529412 C20.4941176,9.83529412 21.2235294,10.5747899 21.2235294,11.8151261 C21.2235294,13.0554622 20.4907563,13.794958 19.2672269,13.794958 C18.0436975,13.794958 17.3109244,13.0554622 17.3109244,11.8151261 C17.3109244,10.5781513 18.0436975,9.83529412 19.2672269,9.83529412 Z M19.2907563,3.58991597 C18.7159664,3.58991597 18.5109244,3.79831933 18.5109244,4.37983193 C18.5109244,4.96134454 18.7159664,5.1697479 19.2907563,5.1697479 C19.8655462,5.1697479 20.0705882,4.96134454 20.0705882,4.37983193 C20.0705882,3.79495798 19.8655462,3.58991597 19.2907563,3.58991597 Z M19.2907563,6.35966387 C18.0638655,6.35966387 17.3344538,5.62016807 17.3344538,4.37983193 C17.3344538,3.1394958 18.0672269,2.4 19.2907563,2.4 C20.5142857,2.4 21.2470588,3.1394958 21.2470588,4.37983193 C21.2470588,5.61680672 20.5176471,6.35966387 19.2907563,6.35966387 Z M22.1747899,21.8655462 L22.1815126,16.5142857 C22.1815126,16.3663866 22.0638655,16.2487395 21.9159664,16.2487395 L1.77815126,16.2487395 C1.63361345,16.2487395 1.51596639,16.3697479 1.51596639,16.5176471 L1.5092437,21.8689076 C1.5092437,22.0168067 1.62689076,22.1344538 1.77478992,22.1344538 L21.912605,22.1344538 C22.0571429,22.1310924 22.1747899,22.010084 22.1747899,21.8655462 L22.1747899,21.8655462 Z M1.51596639,1.75798319 L1.5092437,7.1092437 C1.5092437,7.25378151 1.62689076,7.37815126 1.77478992,7.37815126 L21.912605,7.37815126 C22.0605042,7.37815126 22.1781513,7.25714286 22.1781513,7.1092437 L22.1848739,1.75798319 C22.1848739,1.61008403 22.0672269,1.49243697 21.9193277,1.49243697 L1.77815126,1.49243697 C1.63361345,1.49243697 1.51596639,1.61008403 1.51596639,1.75798319 Z M1.77142857,14.7529412 L21.9092437,14.7529412 C22.0571429,14.7529412 22.1747899,14.6319328 22.1747899,14.4840336 L22.1815126,9.13277311 C22.1815126,8.98487395 22.0638655,8.86722689 21.9159664,8.86722689 L1.77815126,8.86722689 C1.63361345,8.86722689 1.51596639,8.98487395 1.51596639,9.13277311 L1.5092437,14.4840336 C1.5092437,14.6352941 1.62689076,14.7529412 1.77142857,14.7529412 Z M23.6571429,9.13613445 L23.6504202,14.487395 C23.6504202,14.8638655 23.5294118,15.210084 23.3310924,15.4957983 C23.5327731,15.7848739 23.6571429,16.1344538 23.6571429,16.5142857 L23.6504202,21.8655462 C23.6504202,22.8336134 22.8705882,23.6235294 21.9092437,23.6235294 L1.77142857,23.6235294 C0.813445378,23.6235294 0.0336134454,22.8336134 0.0336134454,21.8655462 L0.0403361345,16.5142857 C0.0403361345,16.1378151 0.157983193,15.7915966 0.356302521,15.5058824 C0.154621849,15.2168067 0.0302521008,14.8672269 0.0302521008,14.487395 L0.0369747899,9.13613445 C0.0369747899,8.75966387 0.154621849,8.41344538 0.352941176,8.12773109 C0.151260504,7.83865546 0.0268907563,7.48907563 0.0268907563,7.1092437 L0.0336134454,1.75798319 C0.0336134454,0.789915966 0.813445378,0 1.77142857,0 L21.9092437,0 C22.8672269,0 23.6470588,0.789915966 23.6470588,1.75798319 L23.6403361,7.1092437 C23.6403361,7.48571429 23.5226891,7.83193277 23.3210084,8.11764706 C23.5327731,8.40672269 23.6571429,8.75630252 23.6571429,9.13613445 Z M3.3210084,5.12268908 C2.91428571,5.12268908 2.58487395,4.78991597 2.58487395,4.37647059 C2.58487395,3.96302521 2.91428571,3.6302521 3.3210084,3.6302521 L10.1411765,3.6302521 C10.5478992,3.6302521 10.8773109,3.96302521 10.8773109,4.37647059 C10.8773109,4.78991597 10.5478992,5.12268908 10.1411765,5.12268908 L3.3210084,5.12268908 L3.3210084,5.12268908 Z M10.1411765,11.0722689 C10.5478992,11.0722689 10.8773109,11.405042 10.8773109,11.8184874 C10.8773109,12.2285714 10.5478992,12.5647059 10.1411765,12.5647059 L3.3210084,12.5647059 C2.91428571,12.5647059 2.58487395,12.2319328 2.58487395,11.8184874 C2.58487395,11.405042 2.91428571,11.0722689 3.3210084,11.0722689 L10.1411765,11.0722689 Z M10.1411765,18.5579832 C10.5478992,18.5579832 10.8773109,18.8907563 10.8773109,19.3042017 C10.8773109,19.7176471 10.5478992,20.0504202 10.1411765,20.0504202 L3.3210084,20.0504202 C2.91428571,20.0504202 2.58487395,19.7176471 2.58487395,19.3042017 C2.58487395,18.8907563 2.91428571,18.5579832 3.3210084,18.5579832 L10.1411765,18.5579832 Z" id="Base-de-datos_2Regular"></path>
        </g>
    </g>
</svg>

<svg width="24" height="24" viewBox="0 0 24 24" xmlns="http://www.w3.org/2000/svg"><path d="M19.267 20.047c.575 0 .78-.208.78-.79 0-.581-.205-.79-.78-.79-.575 0-.78.209-.78.79.004.582.205.79.78.79zm0-2.77c1.227 0 1.957.74 1.957 1.98s-.733 1.98-1.957 1.98c-1.223 0-1.956-.74-1.956-1.98s.733-1.98 1.956-1.98zm0-4.672c.575 0 .78-.208.78-.79 0-.581-.205-.79-.78-.79-.575 0-.78.209-.78.79.004.585.205.79.78.79zm0-2.77c1.227 0 1.957.74 1.957 1.98s-.733 1.98-1.957 1.98c-1.223 0-1.956-.74-1.956-1.98 0-1.237.733-1.98 1.956-1.98zm.024-6.245c-.575 0-.78.208-.78.79 0 .581.205.79.78.79.575 0 .78-.209.78-.79 0-.585-.205-.79-.78-.79zm0 2.77c-1.227 0-1.957-.74-1.957-1.98s.733-1.98 1.957-1.98c1.223 0 1.956.74 1.956 1.98 0 1.237-.73 1.98-1.956 1.98zm2.884 15.506l.007-5.352a.264.264 0 00-.266-.265H1.778a.266.266 0 00-.262.269l-.007 5.35c0 .149.118.266.266.266h20.138a.27.27 0 00.262-.268zM1.516 1.758l-.007 5.351c0 .145.118.27.266.27h20.138a.267.267 0 00.265-.27l.007-5.351a.264.264 0 00-.266-.266H1.78a.263.263 0 00-.263.266zm.255 12.995H21.91a.267.267 0 00.266-.269l.007-5.351a.264.264 0 00-.266-.266H1.778a.263.263 0 00-.262.266l-.007 5.351c0 .151.118.269.262.269zm21.886-5.617l-.007 5.351c0 .377-.12.723-.319 1.009.202.289.326.638.326 1.018l-.007 5.352c0 .968-.78 1.758-1.74 1.758H1.77c-.958 0-1.737-.79-1.737-1.758l.006-5.352c0-.376.118-.722.316-1.008a1.775 1.775 0 01-.326-1.019l.007-5.35c0-.377.118-.724.316-1.01A1.775 1.775 0 01.027 7.11l.007-5.351C.034.79.814 0 1.77 0H21.91c.958 0 1.738.79 1.738 1.758l-.007 5.351c0 .377-.117.723-.319 1.009.212.289.336.638.336 1.018zM3.321 5.123a.74.74 0 01-.736-.747.74.74 0 01.736-.746h6.82a.74.74 0 01.736.746.74.74 0 01-.736.747h-6.82zm6.82 5.95a.74.74 0 01.736.745c0 .41-.33.747-.736.747h-6.82a.74.74 0 01-.736-.747.74.74 0 01.736-.746h6.82zm0 7.485a.74.74 0 01.736.746.74.74 0 01-.736.746h-6.82a.74.74 0 01-.736-.746.74.74 0 01.736-.746h6.82z" fill="#5CB615" fill-rule="nonzero"/></svg>
